src/assets/metronic/worbby/global/img/icon-family.svg

<?xml version="1.0" encoding="UTF-8"?>
<svg width="65px" height="65px" viewBox="0 0 120 120" version="1.1" xmlns="http://www.w3.org/2000/svg" xmlns:xlink="http://www.w3.org/1999/xlink">
    <!-- Generator: Sketch 41.2 (35397) - http://www.bohemiancoding.com/sketch -->
    <title>icon-family</title>
    <desc>Created with Sketch.</desc>
    <defs>
        <linearGradient x1="0%" y1="49.9979293%" x2="99.9874969%" y2="49.9979293%" id="linearGradient-1">
            <stop stop-color="#FFB247" offset="0%"></stop>
            <stop stop-color="#FFCB33" offset="100%"></stop>
        </linearGradient>
    </defs>
    <g id="Desktop" stroke="none" stroke-width="1" fill="none" fill-rule="evenodd">
        <g id="Desktop-Needor-Categories-List-All" transform="translate(-235.000000, -540.000000)">
            <g id="Group-2" transform="translate(175.000000, 500.000000)">
                <g id="icon-cook" transform="translate(60.000000, 40.000000)">
                    <g id="icon-family">
                        <path d="M70,100 C97.614,100 120,77.614 120,50 C120,22.386 97.614,0 70,0 C42.386,0 20,22.386 20,50 C20,77.614 42.386,100 70,100" id="Fill-1" fill="url(#linearGradient-1)"></path>
                        <path d="M21.9122,57.3838 C16.9922,57.3838 13.0082,53.3998 13.0082,48.4798 C13.0082,43.5598 16.9922,39.5758 21.9122,39.5758 C26.8322,39.5758 30.8162,43.5838 30.8162,48.4798 C30.8162,53.3758 26.8082,57.3838 21.9122,57.3838 M31.8962,59.8078 C35.0402,57.0238 37.0562,52.9918 37.0562,48.4558 C37.0562,40.1038 30.2642,33.3118 21.9122,33.3118 C13.5602,33.3118 6.7682,40.1038 6.7682,48.4558 C6.7682,52.9678 8.7602,57.0238 11.9042,59.8078 C4.8482,63.4558 0.0002,70.7998 0.0002,79.2718 C0.0002,85.2718 2.4482,90.9598 6.7682,95.0878 L6.7682,116.8318 C6.7682,118.5598 8.1602,119.9518 9.8882,119.9518 C11.6162,119.9518 13.0082,118.5598 13.0082,116.8318 L13.0082,93.6958 C13.0082,92.7598 12.6002,91.8958 11.8802,91.2958 C8.3042,88.3198 6.2402,83.9518 6.2402,79.2958 C6.2402,70.6558 13.2722,63.6238 21.9122,63.6238 C30.5522,63.6238 37.5842,70.6558 37.5842,79.2958 C37.5842,83.9518 35.5202,88.3438 31.9442,91.3438 C31.2242,91.9438 30.8162,92.8078 30.8162,93.7438 L30.8162,116.8798 C30.8162,118.6078 32.2082,119.9998 33.9362,119.9998 C35.6642,119.9998 37.0562,118.6078 37.0562,116.8798 L37.0562,95.1358 C41.3762,91.0078 43.8242,85.3198 43.8242,79.3198 C43.8002,70.7998 38.9522,63.4558 31.8962,59.8078" id="Fill-3" fill="#1E2225"></path>
                        <path d="M104.8564,79.0556 C99.9364,79.0556 95.9524,75.0716 95.9524,70.1516 C95.9524,65.2316 99.9604,61.2476 104.8564,61.2476 C109.7764,61.2476 113.7604,65.2556 113.7604,70.1516 C113.7604,75.0716 109.7764,79.0556 104.8564,79.0556 M113.9524,82.2476 C117.6244,79.4876 120.0004,75.0956 120.0004,70.1756 C120.0004,61.8236 113.2084,55.0316 104.8564,55.0316 C96.5044,55.0316 89.7124,61.8236 89.7124,70.1756 C89.7124,75.1196 92.0884,79.4876 95.7604,82.2476 C92.3524,84.9356 90.1684,89.0876 90.1684,93.7436 C90.1684,97.6076 91.6804,101.2556 94.3204,103.9676 L94.3204,116.8556 C94.3204,118.5836 95.7124,119.9756 97.4404,119.9756 C99.1684,119.9756 100.5604,118.5836 100.5604,116.8556 L100.5604,102.6236 C100.5604,101.6876 100.1524,100.8236 99.4324,100.2236 C97.4884,98.6156 96.3844,96.2396 96.3844,93.7436 C96.3844,89.0876 100.1764,85.2956 104.8324,85.2956 C109.4884,85.2956 113.2804,89.0876 113.2804,93.7436 C113.2804,96.2636 112.1764,98.6156 110.2324,100.2236 C109.5124,100.8236 109.1044,101.6876 109.1044,102.6236 L109.1044,116.8556 C109.1044,118.5836 110.4964,119.9756 112.2244,119.9756 C113.9524,119.9756 115.3444,118.5836 115.3444,116.8556 L115.3444,103.9676 C118.0084,101.2316 119.4964,97.5836 119.4964,93.7436 C119.5444,89.0876 117.3364,84.9356 113.9524,82.2476" id="Fill-5" fill="#1E2225"></path>
                        <path d="M67.128,63.7442 C62.208,63.7442 58.224,59.7362 58.224,54.8402 C58.224,49.9202 62.208,45.9362 67.128,45.9362 C72.048,45.9362 76.032,49.9442 76.032,54.8402 C76.056,59.7602 72.048,63.7442 67.128,63.7442 M76.92,66.3602 C80.184,63.5762 82.272,59.4482 82.272,54.8402 C82.272,46.4882 75.48,39.6962 67.128,39.6962 C58.776,39.6962 51.984,46.4882 51.984,54.8402 C51.984,59.4482 54.072,63.5762 57.336,66.3602 C51.384,69.7682 47.352,76.1762 47.352,83.5202 C47.352,88.7042 49.368,93.6242 52.944,97.2962 L47.472,115.9682 C46.992,117.6242 47.928,119.3522 49.584,119.8322 C51.24,120.3122 52.968,119.3762 53.448,117.7202 L59.448,97.2002 C59.808,96.0002 59.4,94.7282 58.464,93.9362 C55.368,91.3442 53.592,87.5522 53.592,83.5202 C53.592,76.0562 59.664,69.9842 67.152,69.9842 C74.616,69.9842 80.712,76.0562 80.712,83.5202 C80.712,87.5522 78.936,91.3442 75.84,93.9362 C74.88,94.7282 74.496,96.0242 74.856,97.2002 L80.856,117.7202 C81.264,119.0882 82.488,119.9522 83.856,119.9522 C84.144,119.9522 84.432,119.9042 84.72,119.8322 C86.376,119.3522 87.312,117.6242 86.832,115.9682 L81.336,97.2962 C84.912,93.6242 86.928,88.7042 86.928,83.5202 C86.928,76.2002 82.896,69.7922 76.92,66.3602" id="Fill-8" fill="#1E2225"></path>
                    </g>
                </g>
            </g>
        </g>
    </g>
</svg>

<svg xmlns="http://www.w3.org/2000/svg" width="65" height="65" viewBox="0 0 120 120"><defs><linearGradient id="a" x1="0%" x2="99.9875%" y1="49.9979%" y2="49.9979%"><stop stop-color="#FFB247" offset="0%"/><stop stop-color="#FFCB33" offset="100%"/></linearGradient></defs><g fill="none" fill-rule="evenodd"><path fill="url(#a)" d="M70 100c27.614 0 50-22.386 50-50S97.614 0 70 0 20 22.386 20 50s22.386 50 50 50"/><path fill="#1E2225" d="M21.9122 57.3838c-4.92 0-8.904-3.984-8.904-8.904s3.984-8.904 8.904-8.904 8.904 4.008 8.904 8.904-4.008 8.904-8.904 8.904m9.984 2.424c3.144-2.784 5.16-6.816 5.16-11.352 0-8.352-6.792-15.144-15.144-15.144s-15.144 6.792-15.144 15.144c0 4.512 1.992 8.568 5.136 11.352-7.056 3.648-11.904 10.992-11.904 19.464 0 6 2.448 11.688 6.768 15.816v21.744c0 1.728 1.392 3.12 3.12 3.12 1.728 0 3.12-1.392 3.12-3.12v-23.136c0-.936-.408-1.8-1.128-2.4-3.576-2.976-5.64-7.344-5.64-12 0-8.64 7.032-15.672 15.672-15.672s15.672 7.032 15.672 15.672c0 4.656-2.064 9.048-5.64 12.048-.72.6-1.128 1.464-1.128 2.4v23.136c0 1.728 1.392 3.12 3.12 3.12 1.728 0 3.12-1.392 3.12-3.12v-21.744c4.32-4.128 6.768-9.816 6.768-15.816-.024-8.52-4.872-15.864-11.928-19.512M104.8564 79.0556c-4.92 0-8.904-3.984-8.904-8.904s4.008-8.904 8.904-8.904c4.92 0 8.904 4.008 8.904 8.904 0 4.92-3.984 8.904-8.904 8.904m9.096 3.192c3.672-2.76 6.048-7.152 6.048-12.072 0-8.352-6.792-15.144-15.144-15.144s-15.144 6.792-15.144 15.144c0 4.944 2.376 9.312 6.048 12.072-3.408 2.688-5.592 6.84-5.592 11.496 0 3.864 1.512 7.512 4.152 10.224v12.888c0 1.728 1.392 3.12 3.12 3.12 1.728 0 3.12-1.392 3.12-3.12v-14.232c0-.936-.408-1.8-1.128-2.4-1.944-1.608-3.048-3.984-3.048-6.48 0-4.656 3.792-8.448 8.448-8.448 4.656 0 8.448 3.792 8.448 8.448 0 2.52-1.104 4.872-3.048 6.48-.72.6-1.128 1.464-1.128 2.4v14.232c0 1.728 1.392 3.12 3.12 3.12 1.728 0 3.12-1.392 3.12-3.12v-12.888c2.664-2.736 4.152-6.384 4.152-10.224.048-4.656-2.16-8.808-5.544-11.496M67.128 63.7442c-4.92 0-8.904-4.008-8.904-8.904 0-4.92 3.984-8.904 8.904-8.904s8.904 4.008 8.904 8.904c.024 4.92-3.984 8.904-8.904 8.904m9.792 2.616c3.264-2.784 5.352-6.912 5.352-11.52 0-8.352-6.792-15.144-15.144-15.144s-15.144 6.792-15.144 15.144c0 4.608 2.088 8.736 5.352 11.52-5.952 3.408-9.984 9.816-9.984 17.16 0 5.184 2.016 10.104 5.592 13.776l-5.472 18.672c-.48 1.656.456 3.384 2.112 3.864 1.656.48 3.384-.456 3.864-2.112l6-20.52c.36-1.2-.048-2.472-.984-3.264-3.096-2.592-4.872-6.384-4.872-10.416 0-7.464 6.072-13.536 13.56-13.536 7.464 0 13.56 6.072 13.56 13.536 0 4.032-1.776 7.824-4.872 10.416-.96.792-1.344 2.088-.984 3.264l6 20.52c.408 1.368 1.632 2.232 3 2.232.288 0 .576-.048.864-.12 1.656-.48 2.592-2.208 2.112-3.864l-5.496-18.672c3.576-3.672 5.592-8.592 5.592-13.776 0-7.32-4.032-13.728-10.008-17.16"/></g></svg>
